src/lib/packages/icons/src/assets/filled/pause-circle.svg

<svg width="24" height="24" viewBox="0 0 24 24" fill="none" xmlns="http://www.w3.org/2000/svg">
<path d="M12 2C6.477 2 2 6.477 2 12C2 17.523 6.477 22 12 22C17.523 22 22 17.523 22 12C22 6.477 17.523 2 12 2ZM10.75 15.333C10.75 15.778 10.523 16 10.068 16H8.93201C8.47701 16 8.25 15.778 8.25 15.333V8.66602C8.25 8.22202 8.47701 7.99902 8.93201 7.99902H10.068C10.523 7.99902 10.75 8.22102 10.75 8.66602V15.333ZM15.75 15.333C15.75 15.778 15.523 16 15.068 16H13.932C13.477 16 13.25 15.778 13.25 15.333V8.66602C13.25 8.22202 13.477 7.99902 13.932 7.99902H15.068C15.523 7.99902 15.75 8.22102 15.75 8.66602V15.333Z" fill="currentColor"/>
</svg>

<svg xmlns="http://www.w3.org/2000/svg" width="24" height="24" fill="none"><path fill="currentColor" d="M12 2C6.477 2 2 6.477 2 12s4.477 10 10 10 10-4.477 10-10S17.523 2 12 2Zm-1.25 13.333c0 .445-.227.667-.682.667H8.932c-.455 0-.682-.222-.682-.667V8.666c0-.444.227-.667.682-.667h1.136c.455 0 .682.222.682.667v6.667Zm5 0c0 .445-.227.667-.682.667h-1.136c-.455 0-.682-.222-.682-.667V8.666c0-.444.227-.667.682-.667h1.136c.455 0 .682.222.682.667v6.667Z"/></svg>
